libs/ui/packages/crypto-icons/src/svg/CMT.svg

<svg width="24" height="24" viewBox="0 0 24 24" fill="none">
<path fill-rule="evenodd" clip-rule="evenodd" d="M12.207 19.4999C10.4677 19.4954 8.91072 18.9614 7.52022 17.9399C7.15048 17.6684 7.13922 17.5124 7.45422 17.1742L7.48272 17.1442C7.86747 16.7272 7.86522 16.7294 8.32197 17.0579C9.37452 17.827 10.6361 18.2575 11.9392 18.2924C13.3237 18.3404 14.5957 18.0097 15.7455 17.2679C17.1247 16.3784 18.0652 15.1394 18.459 13.5577C18.9532 11.5717 18.5857 9.73269 17.2837 8.11644C16.3717 6.98394 15.1867 6.25419 13.755 5.90844C12.477 5.59944 11.2215 5.67519 9.98772 6.09969C9.33447 6.32469 8.73072 6.65619 8.18547 7.08219C7.91622 7.29219 7.81422 7.28769 7.58547 7.03119C7.47542 6.91165 7.37225 6.78595 7.27647 6.65469C7.13547 6.45519 7.15497 6.33669 7.34547 6.18519C8.25064 5.46722 9.30525 4.96131 10.4317 4.70469C11.4512 4.46305 12.5096 4.43496 13.5405 4.62219C14.9415 4.87569 16.188 5.45169 17.2582 6.38469C18.0502 7.07619 18.6907 7.88469 19.1362 8.82969C19.7497 10.1317 19.9995 11.4952 19.8157 12.9337C19.6518 14.2463 19.1361 15.4901 18.3232 16.5337C17.493 17.6152 16.4302 18.4042 15.1597 18.9224C14.2237 19.3095 13.2198 19.5058 12.207 19.4999ZM11.73 14.7127C11.6797 14.7892 11.6535 14.8462 11.6115 14.8897C11.358 15.1559 11.0482 15.3157 10.6747 15.3277C10.416 15.3352 10.1565 15.3134 9.89772 15.3194C9.79764 15.3185 9.69899 15.3433 9.61122 15.3914C8.41572 16.1414 7.12872 16.2509 5.77272 15.9629C5.32647 15.8684 4.92672 15.6967 4.58622 15.4042C4.32972 15.1844 4.14897 14.9249 4.12722 14.5604C4.08972 13.9252 4.55997 13.4917 5.04447 13.3499C5.93922 13.0874 6.79047 13.2472 7.60497 13.6424C7.97697 13.8224 8.32497 14.0519 8.68047 14.2649C8.88447 14.3857 8.94522 14.3812 9.04722 14.1727C9.50847 13.2307 9.21072 12.1919 8.08422 11.8079C7.09572 11.4704 6.12897 11.5042 5.17722 11.9429C5.03772 12.0074 4.88472 12.1304 4.72047 11.9984C4.55022 11.8604 4.66422 11.6962 4.70772 11.5507C5.02047 10.4977 5.33772 9.44694 5.65947 8.39694C5.72997 8.16669 5.91372 8.04819 6.18222 8.06244C6.57747 8.08419 6.97047 8.14344 7.36572 8.15244C7.95822 8.16744 8.55297 8.17269 9.14472 8.14344C9.58497 8.12094 9.97122 7.92744 10.311 7.64694C10.3522 7.61319 10.4355 7.57419 10.4625 7.59219C10.5022 7.61844 10.5262 7.69194 10.53 7.74744C10.5577 8.20194 10.3627 8.55219 10.0012 8.82444C9.57372 9.14694 9.08547 9.29694 8.55222 9.30969C7.99947 9.32244 7.44672 9.32994 6.89472 9.33219C6.77022 9.33369 6.70422 9.37869 6.67497 9.49569C6.62547 9.69069 6.57297 9.88644 6.51672 10.0807C6.47397 10.2254 6.52872 10.2832 6.67497 10.2772C7.02297 10.2644 7.37097 10.2412 7.71822 10.2434C8.51754 10.2388 9.28937 10.5349 9.88047 11.0729C10.4602 11.5889 10.695 12.2549 10.7302 12.9989C10.758 13.5952 10.644 14.1659 10.3162 14.6797C10.227 14.8199 10.2675 14.8807 10.4182 14.9204C10.8187 15.0262 11.1885 14.9542 11.5417 14.7569C11.5717 14.7404 11.5995 14.7217 11.6302 14.7074C11.6407 14.7029 11.6565 14.7082 11.73 14.7127ZM8.30397 14.8822L8.29197 14.8094C8.24172 14.7787 8.19447 14.7404 8.13972 14.7164C7.74222 14.5402 7.34997 14.3452 6.94197 14.1967C6.52572 14.0444 6.09297 13.9357 5.63997 14.0414C5.43597 14.0887 5.23197 14.1404 5.17272 14.3752C5.10672 14.6339 5.26497 14.7952 5.44947 14.9362C5.50722 14.9804 5.57847 15.0119 5.64747 15.0389C6.34797 15.3089 7.05897 15.3164 7.77297 15.1049C7.95597 15.0509 8.12772 14.9572 8.30397 14.8822Z" fill="#C1A05C"/>
</svg>

<svg width="24" height="24" viewBox="0 0 24 24" fill="none"><path fill="#c1a05c" fill-rule="evenodd" d="M12.207 19.5c-1.74-.005-3.296-.539-4.687-1.56-.37-.272-.38-.428-.066-.766l.029-.03c.384-.417.382-.415.839-.086a6.4 6.4 0 0 0 3.617 1.234c1.385.048 2.657-.282 3.807-1.024 1.379-.89 2.32-2.129 2.713-3.71.494-1.986.127-3.825-1.175-5.442-.912-1.132-2.097-1.862-3.529-2.208a6.6 6.6 0 0 0-3.767.192 6.2 6.2 0 0 0-1.803.982c-.269.21-.37.206-.6-.05a4 4 0 0 1-.309-.377c-.14-.2-.121-.318.07-.47a7.7 7.7 0 0 1 3.086-1.48 7.6 7.6 0 0 1 3.108-.083c1.402.254 2.648.83 3.718 1.763.792.691 1.433 1.5 1.878 2.445.614 1.302.864 2.665.68 4.104a7.34 7.34 0 0 1-1.493 3.6c-.83 1.081-1.893 1.87-3.163 2.388a7.6 7.6 0 0 1-2.953.578m-.477-4.787c-.05.076-.077.133-.119.177a1.32 1.32 0 0 1-.936.438c-.259.007-.519-.015-.777-.009a.6.6 0 0 0-.287.072c-1.195.75-2.482.86-3.838.572-.447-.095-.846-.266-1.187-.559-.256-.22-.437-.48-.459-.844-.037-.635.433-1.068.917-1.21.895-.263 1.746-.103 2.561.292.372.18.72.41 1.075.623.204.12.265.116.367-.092.461-.942.164-1.981-.963-2.365-.988-.338-1.955-.304-2.907.135-.14.064-.292.187-.457.055-.17-.138-.056-.302-.012-.447q.469-1.58.951-3.154c.071-.23.255-.349.523-.335.395.022.788.081 1.184.09.592.015 1.187.02 1.779-.009.44-.022.826-.216 1.166-.496.041-.034.124-.073.152-.055.04.026.063.1.067.155.028.455-.167.805-.529 1.077a2.44 2.44 0 0 1-1.449.486q-.83.018-1.657.022c-.125.002-.19.047-.22.164q-.075.293-.158.585c-.043.144.012.202.158.196.348-.013.696-.036 1.043-.034.8-.004 1.571.292 2.162.83.58.516.815 1.182.85 1.926.028.596-.086 1.167-.414 1.68-.089.14-.049.202.102.241.4.106.77.034 1.124-.163l.088-.05c.01-.004.026.001.1.006m-3.426.17-.012-.074c-.05-.03-.098-.069-.152-.093-.398-.176-.79-.37-1.198-.52-.416-.152-.849-.26-1.302-.155-.204.048-.408.1-.467.334-.066.259.092.42.276.561a.8.8 0 0 0 .198.103c.701.27 1.412.277 2.126.066.183-.054.355-.148.531-.223" clip-rule="evenodd"/></svg>
